X:507
T: Snow Plow Reel
R: Reel
M: 4/4
L: 1/8
C: by  D.H. MacEachern
K: A
B,|"A" A,2 A,C A2 Ad | cAec "Bm"dBBc |"A" A,2 A,C A2 AE |"D" FDEC "A"A,/2A,/2A, A,B, |
| A,2 A,C A2 Ad | cAec "Bm"dBBd |"A" cAFA GBEG | AFEC A,/2A,/2A, A,d |
|c2 ea c/2c/2c ef | ecae "Bm"fBBd |"A" c2 ea c/2c/2c ef | ecdB A2 Ad |
|c2 ea c/2c/2c ef | ecae "Bm"fBBd |"A" cAFA "E"GBEG |"A" AFEC A,/2A,/2A, A,2 ||

